!!!COM: Mozart, Wolfgang Amadeus
!!!OTL: String Quartet No. 2 in D Major
!!!OMD: Molto Allegro
!!!OMV: 3
!!!SCT1: K<sup>1</sup> 155
!!!SCA: Chronologisch-thematisches Verzeichnis sämtlicher Tonwerke Wolfgang Amade Mozarts (L. von Köchel; 1862, 2/1905, 3/1937, 1947)
!!!SCT2: K<sup>6</sup> 134a
!!!YOR: Breitkopf & Härtel Edition
!!!ENC: Edmund Correia, Jr.
!!!CDT: 1756/1/27/-1791/12/5/
!!!OCY: Österreich
!!!YEC: Copyright (c) 1994, 2000 Center for Computer Assisted Research in the Humanities
!!!YEM: Rights to all derivative editions reserved.
!!!YEM: Refer to licensing agreement for further details.
!!!YEN: United States of America
**kern	**dynam	**kern	**dynam	**kern	**dynam	**kern	**dynam
*I:Violoncello	*I:Violoncello	*I:Viola	*I:Viola	*I:Violino 2	*I:Violino 2	*I:Violino 1	*I:Violino 1
*clefF4	*	*clefC3	*	*clefG2	*	*clefG2	*
*k[f#c#]	*	*k[f#c#]	*	*k[f#c#]	*	*k[f#c#]	*
*D:	*	*D:	*	*D:	*	*D:	*
*M2/4	*	*M2/4	*	*M2/4	*	*M2/4	*
! Molto Allegro	!	! Molto Allegro	!	! Molto Allegro	!	! Molto Allegro	!
8r	.	8r	.	8A/xx	f	8a/xx	f
32ryy	.	32ryy	.	32ryy	.	32ryy	.
32ryy	.	32ryy	.	32ryy	.	32ryy	.
32ryy	.	32ryy	.	32ryy	.	32ryy	.
32ryy	.	32ryy	.	32ryy	.	32ryy	.
32ryy	.	32ryy	.	32ryy	.	32ryy	.
32ryy	.	32ryy	.	32ryy	.	32ryy	.
32ryy	.	32ryy	.	32ryy	.	32ryy	.
32ryy	.	32ryy	.	32ryy	.	32ryy	.
32ryy	.	32ryy	.	32ryy	.	32ryy	.
32ryy	.	32ryy	.	32ryy	.	32ryy	.
32ryy	.	32ryy	.	32ryy	.	32ryy	.
32ryy	.	32ryy	.	32ryy	.	32ryy	.
=1	=1	=1	=1	=1	=1	=1	=1
8r	.	8r	.	8d/L	.	8dd\L	.
8D\Lxx	f	8d\Lxx	f	8f#/	.	8ff#\	.
8E\	.	8d\	.	8g/	.	8gg\	.
8F#\J	.	8d\J	.	8a/J	.	8aa\J	.
=2	=2	=2	=2	=2	=2	=2	=2
4G\	.	4d\	.	(8a#/L	.	(8aa#\L	.
.	.	.	.	8b/)	.	8bb\)	.
4E\	.	8r	.	8g'/	.	8gg'\	.
.	.	8g\	.	8e'/J	.	8ee'\J	.
=3	=3	=3	=3	=3	=3	=3	=3
4.A\	.	(8f#\L	.	(8d/L	.	(8dd\L	.
.	.	8e\)	.	8c#/)	.	8cc#\)	.
.	.	8d'\	.	8B'/	.	8b'\	.
8G\	.	8c#'\J	.	8A'/J	.	8a'\J	.
=4	=4	=4	=4	=4	=4	=4	=4
(8G\L	.	4d\	.	4d/	.	4.dd\	.
8F#\)	.	.	.	.	.	.	.
8E'\	.	4r	.	8r	.	.	.
8D'\J	.	.	.	8d/	.	8a/ 8f#/	.
=5	=5	=5	=5	=5	=5	=5	=5
(8E\L	.	8r	.	(8c#/L	.	8a/ 8g/L	.
8D\	.	8A/	.	8d/	.	8a/ 8f#/	.
8E\	.	4A/	.	8c#/	.	8a/ 8g/	.
8C#\J)	.	.	.	8e/J)	.	8a/ 8e/J	.
=6	=6	=6	=6	=6	=6	=6	=6
(8D\L	.	8r	.	(8d/L	.	8a/ 8f#/L	.
8C#\	.	8A/	.	8A/	.	8a/ 8e/	.
8D\)	.	4A/	.	8d/	.	8a/ 8f#/	.
8D'\J	.	.	.	8B/J)	.	8a/ 8d/J	.
=7	=7	=7	=7	=7	=7	=7	=7
*	*	*	*	*	*	*^	*
4AA/	.	4A/	.	(8c#/L	.	4a/	(8e\L	.
.	.	.	.	8B/)	.	.	8d\J)	.
4AA/	.	4A/	.	(8c#/	.	4a/	(8e\L	.
.	.	.	.	8d/J)	.	.	8f#\J)	.
=8	=8	=8	=8	=8	=8	=8	=8	=8
*	*	*	*	*	*	*v	*v	*
8AA'\L	.	4A/	.	4c#/	.	4a/ 4e/	.
(8G\	.	.	.	.	.	.	.
8F#\	.	4r	.	8r	.	8r	.
8E\J)	.	.	.	8A/	.	8a/	.
=9	=9	=9	=9	=9	=9	=9	=9
8F#'\L	.	8r	.	8d/L	.	8dd\L	.
8D'\	.	8d\L	.	8f#/	.	8ff#\	.
8E'\	.	8d\	.	8g/	.	8gg\	.
8F#'\J	.	8d\J	.	8a/J	.	8aa\J	.
=10	=10	=10	=10	=10	=10	=10	=10
4G\	.	4d\	.	(8a#/L	.	(8aa#\L	.
.	.	.	.	8b/)	.	8bb\)	.
4E\	.	8r	.	8g'/	.	8gg'\	.
.	.	8g\	.	8e'/J	.	8ee'\J	.
=11	=11	=11	=11	=11	=11	=11	=11
4.A\	.	(8f#\L	.	(8d/L	.	(8dd\L	.
.	.	8e\)	.	8c#/)	.	8cc#\)	.
.	.	8d'\	.	8B'/	.	8b'\	.
8G\	.	8c#'\J	.	8A'/J	.	8a'\J	.
=12	=12	=12	=12	=12	=12	=12	=12
(8G\L	.	4d\	.	4d/	.	4.dd\	.
8F#\)	.	.	.	.	.	.	.
8E'\	.	4r	.	8r	.	.	.
8D'\J	.	.	.	8d/	.	8a/ 8f#/	.
=13	=13	=13	=13	=13	=13	=13	=13
(8E\L	.	8r	.	(8c#/L	.	8a/ 8g/L	.
8D\	.	8A/	.	8d/	.	8a/ 8f#/	.
8E\	.	4A/	.	8c#/	.	8a/ 8g/	.
8C#\J)	.	.	.	8e/J)	.	8a/ 8e/J	.
=14	=14	=14	=14	=14	=14	=14	=14
(8D\L	.	8r	.	(8d/L	.	8a/ 8f#/L	.
8C#\	.	8A/	.	8A/	.	8a/ 8e/	.
8D\)	.	4A/	.	8d/	.	8a/ 8f#/	.
8D'\J	.	.	.	8B/J)	.	8a/ 8d/J	.
=15	=15	=15	=15	=15	=15	=15	=15
*	*	*	*	*	*	*^	*
4AA/	.	4A/	.	(8c#/L	.	4a/	(8e\L	.
.	.	.	.	8d/)	.	.	8f#\J)	.
4AA/	.	4G/	.	(8e/	.	4a/	(8g\L	.
.	.	.	.	8c#/J)	.	.	8e\J)	.
=16	=16	=16	=16	=16	=16	=16	=16	=16
*	*	*	*	*	*	*v	*v	*
4D\	.	4F#/	.	4d/ 4A/	.	4a/ 4d/	.
4r	.	4r	.	4r	.	8r	.
.	.	.	.	.	.	8a/	.
=17	=17	=17	=17	=17	=17	=17	=17
4D\	.	4f#\	.	4a/	.	12dd/L	.
.	.	.	.	.	.	12a/	.
.	.	.	.	.	.	12f#/J	.
4r	.	4r	.	4r	.	12d\L	.
.	.	.	.	.	.	12ff#\	.
.	.	.	.	.	.	12aa\J	.
=18	=18	=18	=18	=18	=18	=18	=18
4C#/	.	4e\	.	4a/	.	12ee\L	.
.	.	.	.	.	.	12cc#\	.
.	.	.	.	.	.	12a\J	.
4r	.	4r	.	4r	.	12A/L	.
.	.	.	.	.	.	12cc#/	.
.	.	.	.	.	.	12ee/J	.
=19	=19	=19	=19	=19	=19	=19	=19
4B\	.	4e\	.	4g#/	.	(12dd\L	.
.	.	.	.	.	.	12ee\	.
.	.	.	.	.	.	12dd\J)	.
4A\	.	4e\	.	4a/	.	12cc#\L	.
.	.	.	.	.	.	12b\	.
.	.	.	.	.	.	12a\J	.
=20	=20	=20	=20	=20	=20	=20	=20
4E\	.	4e\	.	4b\	.	12g#/L	.
.	.	.	.	.	.	12a/	.
.	.	.	.	.	.	12b/J	.
4r	.	4r	.	4r	.	12e\L	.
.	.	.	.	.	.	12ee\	.
.	.	.	.	.	.	12gg#\J	.
=21	=21	=21	=21	=21	=21	=21	=21
4c#\	.	4r	.	[2ee\	.	12aa\L	.
.	.	.	.	.	.	12ee\	.
.	.	.	.	.	.	12cc#\J	.
4G#\	.	12d\L	.	.	.	12b\L	.
.	.	12c#\	.	.	.	12cc#\	.
.	.	12B\J	.	.	.	12dd\J	.
=22	=22	=22	=22	=22	=22	=22	=22
4A\	.	4A/	.	2ee\_	.	12cc#\L	.
.	.	.	.	.	.	12b\	.
.	.	.	.	.	.	12a\J	.
4E\	.	4G#/	.	.	.	12b\L	.
.	.	.	.	.	.	12ee\	.
.	.	.	.	.	.	12gg#\J	.
=23	=23	=23	=23	=23	=23	=23	=23
4c#\	.	4r	.	2ee\_	.	12aa\L	.
.	.	.	.	.	.	12ee\	.
.	.	.	.	.	.	12cc#\J	.
4G#\	.	12d\L	.	.	.	12b\L	.
.	.	12c#\	.	.	.	12cc#\	.
.	.	12B\J	.	.	.	12dd\J	.
=24	=24	=24	=24	=24	=24	=24	=24
4A\	.	4A/	.	2ee\_	.	12cc#\L	.
.	.	.	.	.	.	12b\	.
.	.	.	.	.	.	12a\J	.
4E\	.	4G#/	.	.	.	12b\L	.
.	.	.	.	.	.	12ee\	.
.	.	.	.	.	.	12gg#\J	.
=25	=25	=25	=25	=25	=25	=25	=25
4C#/	.	4A/	.	4ee\]	.	12aa\L	.
.	.	.	.	.	.	12gg#\	.
.	.	.	.	.	.	12ff#\J	.
4C#/	.	4A/	.	4e/	.	12ee\L	.
.	.	.	.	.	.	12dd\	.
.	.	.	.	.	.	12cc#\J	.
=26	=26	=26	=26	=26	=26	=26	=26
4D\	.	2A/	.	2f#/	.	(12b\L	.
.	.	.	.	.	.	12dd\	.
.	.	.	.	.	.	12cc#\J)	.
4D\	.	.	.	.	.	12b\L	.
.	.	.	.	.	.	12dd\	.
.	.	.	.	.	.	12ff#\J	.
=27	=27	=27	=27	=27	=27	=27	=27
4E\	.	2G#/	.	2B/	.	(12ee\L	.
.	.	.	.	.	.	12ff#\	.
.	.	.	.	.	.	12ee\J)	.
4E\	.	.	.	.	.	12dd\L	.
.	.	.	.	.	.	12cc#\	.
.	.	.	.	.	.	12dd\J	.
=28	=28	=28	=28	=28	=28	=28	=28
4F#\	.	[2A/	.	2A/	.	(12b#\L	.
.	.	.	.	.	.	12cc#\)	.
.	.	.	.	.	.	12cc#'\J	.
4F#\	.	.	.	.	.	12cc#\L	.
.	.	.	.	.	.	12ee\	.
.	.	.	.	.	.	12gg#\J	.
=29	=29	=29	=29	=29	=29	=29	=29
4C#/	.	2A/]	.	2e/	.	12aa\L	.
.	.	.	.	.	.	12gg#\	.
.	.	.	.	.	.	12ff#\J	.
4C#/	.	.	.	.	.	12ee\L	.
.	.	.	.	.	.	12dd\	.
.	.	.	.	.	.	12cc#\J	.
=30	=30	=30	=30	=30	=30	=30	=30
4D\	.	2A/	.	2f#/	.	(12b\L	.
.	.	.	.	.	.	12dd\	.
.	.	.	.	.	.	12cc#\J)	.
4D\	.	.	.	.	.	12b\L	.
.	.	.	.	.	.	12dd\	.
.	.	.	.	.	.	12ff#\J	.
=31	=31	=31	=31	=31	=31	=31	=31
4E\	.	4A/	.	(4c#/	.	12ee\L	.
.	.	.	.	.	.	12dd\	.
.	.	.	.	.	.	12cc#\J	.
4E\	.	(12G#/L	.	4d/)	.	12b/L	.
.	.	12A/	.	.	.	12a/	.
.	.	12B/J)	.	.	.	12g#/J	.
=32	=32	=32	=32	=32	=32	=32	=32
8A\L	.	4A/	.	4c#/	.	4a/	.
8Gn\	.	.	.	.	.	.	.
8F#\	.	4r	.	8r	.	8r	.
8E\J	.	.	.	8A/	.	8a/	.
=33	=33	=33	=33	=33	=33	=33	=33
8F#\L	.	8r	.	8d/L	.	8dd\L	.
8D\	.	8d\L	.	8f#/	.	8ff#\	.
8E\	.	8d\	.	8gn/	.	8ggn\	.
8F#\J	.	8d\J	.	8a/J	.	8aa\J	.
=34	=34	=34	=34	=34	=34	=34	=34
4G\	.	4d\	.	(8a#/L	.	(8aa#\L	.
.	.	.	.	8b/)	.	8bb\)	.
4E\	.	8r	.	8g'/	.	8gg'\	.
.	.	8gn\	.	8e'/J	.	8ee'\J	.
=35	=35	=35	=35	=35	=35	=35	=35
4.A\	.	(8f#\L	.	(8d/L	.	(8dd\L	.
.	.	8e\)	.	8c#/)	.	8cc#\)	.
.	.	8d'\	.	8B'/	.	8b'\	.
8G\	.	8c#'\J	.	8A'/J	.	8a'\J	.
=36	=36	=36	=36	=36	=36	=36	=36
(8G\L	.	4d\	.	4d/	.	4.dd\	.
8F#\)	.	.	.	.	.	.	.
8E'\	.	4r	.	8r	.	.	.
8D'\J	.	.	.	8d/	.	8a/ 8f#/	.
=37	=37	=37	=37	=37	=37	=37	=37
(8E\L	.	8r	.	(8c#/L	.	8a/ 8gn/L	.
8D\	.	8A/	.	8d/	.	8a/ 8f#/	.
8E\	.	4A/	.	8c#/	.	8a/ 8g/	.
8C#\J)	.	.	.	8e/J)	.	8a/ 8e/J	.
=38	=38	=38	=38	=38	=38	=38	=38
(8D/L	.	8r	.	(8d/L	.	8a/ 8f#/L	.
8C#/	.	8A/	.	8A/	.	8a/ 8e/	.
8D/	.	4A/	.	8d/	.	8a/ 8f#/	.
8BB/J)	.	.	.	8B/J)	.	8a/ 8d/J	.
=39	=39	=39	=39	=39	=39	=39	=39
*	*	*	*	*	*	*^	*
4AA/	.	4A/	.	(8c#/L	.	4a/	(8e\L	.
.	.	.	.	8B/)	.	.	8d\J)	.
4AA/	.	4A/	.	(8c#/	.	4a/	(8e\L	.
.	.	.	.	8d/J)	.	.	8f#\J)	.
=40	=40	=40	=40	=40	=40	=40	=40	=40
*	*	*	*	*	*	*v	*v	*
8AA\L	.	4A/	.	4c#/	.	4a/ 4e/	.
8G\	.	.	.	.	.	.	.
8F#\	.	4r	.	8r	.	8r	.
8E\J	.	.	.	8A/	.	8a/	.
=41	=41	=41	=41	=41	=41	=41	=41
8F#\L	.	8r	.	8d/L	.	8dd\L	.
8D\	.	8d\L	.	8f#/	.	8ff#\	.
8E\	.	8d\	.	8g/	.	8gg\	.
8F#\J	.	8d\J	.	8a/J	.	8aa\J	.
=42	=42	=42	=42	=42	=42	=42	=42
4G\	.	4d\	.	(8a#/L	.	(8aa#\L	.
.	.	.	.	8b/)	.	8bb\)	.
4E\	.	8r	.	8g'/	.	8gg'\	.
.	.	8g\	.	8e'/J	.	8ee'\J	.
=43	=43	=43	=43	=43	=43	=43	=43
4.A\	.	(8f#\L	.	(8d/L	.	(8dd\L	.
.	.	8e\)	.	8c#/)	.	8cc#\)	.
.	.	8d'\	.	8B'/	.	8b'\	.
8G\	.	8c#'\J	.	8A'/J	.	8a'\J	.
=44	=44	=44	=44	=44	=44	=44	=44
(8G\L	.	4d\	.	4d/	.	4.dd\	.
8F#\)	.	.	.	.	.	.	.
8E'\	.	4r	.	8r	.	.	.
8D'\J	.	.	.	8d/	.	8a/ 8f#/	.
=45	=45	=45	=45	=45	=45	=45	=45
(8E\L	.	8r	.	(8c#/L	.	8a/ 8g/L	.
8D\	.	8A/	.	8d/	.	8a/ 8f#/	.
8E\	.	4A/	.	8c#/	.	8a/ 8g/	.
8C#\J)	.	.	.	8e/J)	.	8a/ 8e/J	.
=46	=46	=46	=46	=46	=46	=46	=46
(8D/L	.	8r	.	(8d/L	.	8a/ 8f#/L	.
8C#/	.	8A/	.	8A/	.	8a/ 8e/	.
8D/	.	4A/	.	8d/	.	8a/ 8f#/	.
8BB/J)	.	.	.	8B/J)	.	8a/ 8d/J	.
=47	=47	=47	=47	=47	=47	=47	=47
*	*	*	*	*	*	*^	*
4AA/	.	4A/	.	(8c#/L	.	4a/	(8e\L	.
.	.	.	.	8d/)	.	.	8f#\J)	.
4AA/	.	4G/	.	(8e/	.	4a/	(8g\L	.
.	.	.	.	8c#/J)	.	.	8e\J)	.
=48	=48	=48	=48	=48	=48	=48	=48	=48
*	*	*	*	*	*	*v	*v	*
4D\	.	4F#/	.	4d/	.	4a/ 4d/	.
4r	.	4r	.	4r	.	8r	.
.	.	.	.	.	.	8a/	p
=49	=49	=49	=49	=49	=49	=49	=49
4D\	p	4Fn/	p	8r	.	(4.aa\	.
.	.	.	.	(8d/L	p	.	.
4r	.	4r	.	8fn/	.	.	.
.	.	.	.	8d/J)	.	8bb-\)	.
=50	=50	=50	=50	=50	=50	=50	=50
4A\	.	4A/	.	8r	.	(4dd\	.
.	.	.	.	(8e/L	.	.	.
4r	.	4r	.	8g/	.	4cc#\)	.
.	.	.	.	8e/J)	.	.	.
=51	=51	=51	=51	=51	=51	=51	=51
4D\	.	4A/	.	8r	.	(4.dd\	.
.	.	.	.	(8fn/L	.	.	.
4r	.	4r	.	8a/	.	.	.
.	.	.	.	8f/J)	.	16ee\LL	.
.	.	.	.	.	.	16ffn\JJ)	.
=52	=52	=52	=52	=52	=52	=52	=52
4AA/	.	4A/	.	8r	.	4ee\	.
.	.	.	.	(8c#/L	.	.	.
4r	.	4r	.	8e/	.	8r	.
.	.	.	.	8c#/J)	.	8a/	.
=53	=53	=53	=53	=53	=53	=53	=53
4A\	.	4c#\	.	8r	.	4.gg\	.
.	.	.	.	(8e/L	.	.	.
4r	.	4r	.	8a/	.	.	.
.	.	.	.	8c#/J)	.	8ee\	.
=54	=54	=54	=54	=54	=54	=54	=54
4AA/	.	4E/	.	8r	.	(8cc#\L	.
.	.	.	.	(8c#/L	.	8ee\	.
4r	.	4r	.	8e/	.	8a\	.
.	.	.	.	8g/J)	.	8b-\J)	.
=55	=55	=55	=55	=55	=55	=55	=55
4A\	.	4A/	.	8r	.	(4.e/	.
.	.	.	.	(8c#/L	.	.	.
4r	.	4r	.	8A/	.	.	.
.	.	.	.	8c#/J)	.	16fn/LL	.
.	.	.	.	.	.	16g/JJ)	.
=56	=56	=56	=56	=56	=56	=56	=56
4D\	.	4A/	.	8r	.	4fn/	.
.	.	.	.	(8d/L	.	.	.
4r	.	4r	.	8A/	.	8r	.
.	.	.	.	8fn/J)	.	8dd\	.
=57	=57	=57	=57	=57	=57	=57	=57
4G\	.	4G/	.	8r	.	(4.bb-\	.
.	.	.	.	(8d/L	.	.	.
4r	.	4r	.	8g/	.	.	.
.	.	.	.	8fn/J)	.	8dd\)	.
=58	=58	=58	=58	=58	=58	=58	=58
4Cn/	.	4G/	.	8r	.	(4.ccn\	.
.	.	.	.	(8e/L	.	.	.
4r	.	4r	.	8g/	.	.	.
.	.	.	.	8e/J)	.	8bb-\)	.
=59	=59	=59	=59	=59	=59	=59	=59
4Fn\	.	4Fn/	.	8r	.	(4.aa\	.
.	.	.	.	(8cn/L	.	.	.
4r	.	4r	.	8fn/	.	.	.
.	.	.	.	8e/J)	.	8ccn\)	.
=60	=60	=60	=60	=60	=60	=60	=60
4BB-/	.	4Fn/	.	8r	.	(4.b-\	.
.	.	.	.	(8d/L	.	.	.
4r	.	4r	.	8fn/	.	.	.
.	.	.	.	8d/J)	.	8aa\)	.
=61	=61	=61	=61	=61	=61	=61	=61
4E\	.	4E/	.	8r	.	(4.gg\	.
.	.	.	.	(8B-/L	.	.	.
4r	.	4r	.	8e/	.	.	.
.	.	.	.	8d/J)	.	8b-\)	.
=62	=62	=62	=62	=62	=62	=62	=62
4AA/	.	4E/	.	8r	.	(4.a/	.
.	.	.	.	(8c#/L	.	.	.
4r	.	8r	.	8e/	.	.	.
.	.	8e\	.	8c#/J)	.	8gg\)	.
=63	=63	=63	=63	=63	=63	=63	=63
4D\	.	(4e\	.	(4A/	.	4gg\	.
4GG#/	.	4d\)	.	4Bn/)	.	(8.ffnt\L	.
.	.	.	.	.	.	32ee\LL	.
.	.	.	.	.	.	32ff\JJJ)	.
=64	=64	=64	=64	=64	=64	=64	=64
4AA/	.	[2A/	.	4c#/	.	4ee\	.
4C#/	.	.	.	8r	.	8r	.
.	.	.	.	8e/	.	8a/	.
=65	=65	=65	=65	=65	=65	=65	=65
4D\	.	4A/]	.	4e/	.	4g/	.
4GG#/	.	4B/	.	(8.dT/L	.	(8.fnt/L	.
.	.	.	.	32c#/LL	.	32e/LL	.
.	.	.	.	32d/JJJ)	.	32f/JJJ)	.
=66	=66	=66	=66	=66	=66	=66	=66
4AA/	.	4E/	.	4c#/	.	4e/	.
4r	.	4r	.	8r	.	8r	.
.	.	.	.	8A/	f	8a/	f
=67	=67	=67	=67	=67	=67	=67	=67
8r	.	8r	.	8d/L	.	8dd\L	.
8D\L	f	8d\L	f	8f#/	.	8ff#\	.
8E\	.	8d\	.	8g/	.	8gg\	.
8F#\J	.	8d\J	.	8a/J	.	8aa\J	.
=68	=68	=68	=68	=68	=68	=68	=68
4G\	.	4d\	.	(8a#/L	.	(8aa#\L	.
.	.	.	.	8bn/)	.	8bbn\)	.
4E\	.	8r	.	8g'/	.	8gg'\	.
.	.	8g\	.	8e'/J	.	8ee'\J	.
=69	=69	=69	=69	=69	=69	=69	=69
4.A\	.	(8f#\L	.	(8d/L	.	(8dd\L	.
.	.	8e\)	.	8c#/)	.	8cc#\)	.
.	.	8d'\	.	8B'/	.	8bn'\	.
8G\	.	8c#'\J	.	8A'/J	.	8a'\J	.
=70	=70	=70	=70	=70	=70	=70	=70
(8G\L	.	4d\	.	4d/	.	4.dd\	.
8F#\)	.	.	.	.	.	.	.
8E'\	.	4r	.	8r	.	.	.
8D'\J	.	.	.	8d/	.	8a/ 8f#/	.
=71	=71	=71	=71	=71	=71	=71	=71
(8E\L	.	8r	.	(8c#/L	.	8a/ 8g/L	.
8D\	.	8A/	.	8d/	.	8a/ 8f#/	.
8E\	.	4A/	.	8c#/	.	8a/ 8g/	.
8C#\J)	.	.	.	8e/J)	.	8a/ 8e/J	.
=72	=72	=72	=72	=72	=72	=72	=72
(8D\L	.	8r	.	(8d/L	.	8a/ 8f#/L	.
8C#\	.	8A/	.	8A/	.	8a/ 8e/	.
8D\)	.	4A/	.	8d/	.	8a/ 8f#/	.
8D'\J	.	.	.	8B/J)	.	8a/ 8d/J	.
=73	=73	=73	=73	=73	=73	=73	=73
*	*	*	*	*	*	*^	*
4AA/	.	4A/	.	(8c#/L	.	4a/	(8e\L	.
.	.	.	.	8B/)	.	.	8d\J)	.
4AA/	.	4G/	.	(8c#/	.	4a/	(8e\L	.
.	.	.	.	8d/J)	.	.	8f#\J)	.
=74	=74	=74	=74	=74	=74	=74	=74	=74
*	*	*	*	*	*	*v	*v	*
4D\	.	4F#/	.	4A/	.	4a/ 4d/	.
4r	.	4r	.	4r	.	8r	.
.	.	.	.	.	.	16ff#\LL	.
.	.	.	.	.	.	16gg\JJ	.
=75	=75	=75	=75	=75	=75	=75	=75
4F#\	.	4r	.	[2aa\	.	16aa\LL	.
.	.	.	.	.	.	16gg\	.
.	.	.	.	.	.	16ff#\	.
.	.	.	.	.	.	16ee\JJ	.
4D\	.	4d\	.	.	.	16dd\LL	.
.	.	.	.	.	.	16cc#\	.
.	.	.	.	.	.	16b\	.
.	.	.	.	.	.	16a\JJ	.
=76	=76	=76	=76	=76	=76	=76	=76
4E\	.	4c#\	.	2aa\_	.	16g/LL	.
.	.	.	.	.	.	16f#/	.
.	.	.	.	.	.	16e/	.
.	.	.	.	.	.	16d/JJ	.
4E\	.	4G/	.	.	.	4c#/	.
=77	=77	=77	=77	=77	=77	=77	=77
4C#/	.	4r	.	2aa\_	.	16gg\LL	.
.	.	.	.	.	.	16ff#\	.
.	.	.	.	.	.	16ee\	.
.	.	.	.	.	.	16dd\JJ	.
4AA/	.	4e\	.	.	.	16cc#/LL	.
.	.	.	.	.	.	16b/	.
.	.	.	.	.	.	16a/	.
.	.	.	.	.	.	16g/JJ	.
=78	=78	=78	=78	=78	=78	=78	=78
4D\	.	4d\	.	2aa\]	.	16f#/LL	.
.	.	.	.	.	.	16e/	.
.	.	.	.	.	.	16d/	.
.	.	.	.	.	.	16c#/JJ	.
4D\	.	4F#/	.	.	.	4d/	.
=79	=79	=79	=79	=79	=79	=79	=79
4F#\	.	4r	.	[2aa\	.	16aa\LL	.
.	.	.	.	.	.	16gg\	.
.	.	.	.	.	.	16ff#\	.
.	.	.	.	.	.	16ee\JJ	.
4D\	.	4d\	.	.	.	16dd\LL	.
.	.	.	.	.	.	16cc#\	.
.	.	.	.	.	.	16b\	.
.	.	.	.	.	.	16a\JJ	.
=80	=80	=80	=80	=80	=80	=80	=80
4E\	.	4c#\	.	2aa\_	.	16g/LL	.
.	.	.	.	.	.	16f#/	.
.	.	.	.	.	.	16e/	.
.	.	.	.	.	.	16d/JJ	.
4E\	.	4G/	.	.	.	4c#/	.
=81	=81	=81	=81	=81	=81	=81	=81
4C#/	.	4r	.	2aa\_	.	16gg\LL	.
.	.	.	.	.	.	16ff#\	.
.	.	.	.	.	.	16ee\	.
.	.	.	.	.	.	16dd\JJ	.
4AA/	.	4e\	.	.	.	16cc#/LL	.
.	.	.	.	.	.	16b/	.
.	.	.	.	.	.	16a/	.
.	.	.	.	.	.	16g/JJ	.
=82	=82	=82	=82	=82	=82	=82	=82
4D\	.	4d\	.	2aa\]	.	16f#/LL	.
.	.	.	.	.	.	16e/	.
.	.	.	.	.	.	16d/	.
.	.	.	.	.	.	16c#/JJ	.
4D\	.	4F#/	.	.	.	4d/	.
=83	=83	=83	=83	=83	=83	=83	=83
4F#\	.	2F#/	.	4r	.	16aa\LL	.
.	.	.	.	.	.	16gg\	.
.	.	.	.	.	.	16ff#\	.
.	.	.	.	.	.	16ee\JJ	.
4FF#/	.	.	.	[4d/	.	16dd\LL	.
.	.	.	.	.	.	16cc#\	.
.	.	.	.	.	.	16b\	.
.	.	.	.	.	.	16a\JJ	.
=84	=84	=84	=84	=84	=84	=84	=84
4GG/	.	2G/	.	4d/]	.	16b\LL	.
.	.	.	.	.	.	16cc#\	.
.	.	.	.	.	.	16dd\	.
.	.	.	.	.	.	16ee\JJ	.
4G\	.	.	.	[4e/	.	16ff#\LL	.
.	.	.	.	.	.	16gg\	.
.	.	.	.	.	.	16aa\	.
.	.	.	.	.	.	16bb\JJ	.
=85	=85	=85	=85	=85	=85	=85	=85
4A\	.	2c#\	.	4e/]	.	16gg\LL	.
.	.	.	.	.	.	16ff#\	.
.	.	.	.	.	.	16ee\	.
.	.	.	.	.	.	16dd\JJ	.
4AA/	.	.	.	4e/	.	16cc#/LL	.
.	.	.	.	.	.	16b/	.
.	.	.	.	.	.	16a/	.
.	.	.	.	.	.	16g/JJ	.
=86	=86	=86	=86	=86	=86	=86	=86
4BB/	.	8d/L	.	4d/	.	16f#/LL	.
.	.	.	.	.	.	16d/	.
.	.	8B/	.	.	.	16e/	.
.	.	.	.	.	.	16f#/JJ	.
8AA/L	.	8A/	.	8c#/L	.	16g/LL	.
.	.	.	.	.	.	16a/	.
8GG/J	.	8G/J	.	8B/J	.	16b/	.
.	.	.	.	.	.	16cc#/JJ	.
=87	=87	=87	=87	=87	=87	=87	=87
4FF#/	.	4F#/	.	4A/	.	16dd\LL	.
.	.	.	.	.	.	16ee\	.
.	.	.	.	.	.	16ff#\	.
.	.	.	.	.	.	16gg\JJ	.
4F#\	.	[4d\	.	4a/	.	16aa\LL	.
.	.	.	.	.	.	16bb\	.
.	.	.	.	.	.	16ccc#\	.
.	.	.	.	.	.	16ddd\JJ	.
=88	=88	=88	=88	=88	=88	=88	=88
4G\	.	4d\]	.	16g/LL	.	16bb\LL	.
.	.	.	.	16a/	.	16ccc#\	.
.	.	.	.	16b/	.	16ddd\	.
.	.	.	.	16a/JJ	.	16ccc#\JJ	.
4G\	.	4B/	.	16b/LL	.	16ddd\LL	.
.	.	.	.	16g/	.	16bb\	.
.	.	.	.	16f#/	.	16aa\	.
.	.	.	.	16e/JJ	.	16gg\JJ	.
=89	=89	=89	=89	=89	=89	=89	=89
4A\	.	4A/	.	4d/	.	4ff#\	.
4AA/	.	4G/	.	(8.c#t/L	.	(8.eeT\L	.
.	.	.	.	32B/LL	.	32dd\LL	.
.	.	.	.	32c#/JJJ)	.	32ee\JJJ)	.
=90	=90	=90	=90	=90	=90	=90	=90
4D\	.	4F#/	.	4d/	.	4dd\	.
4r	.	4r	.	4r	.	8r	.
.	.	.	.	.	.	8a/	p
=91	=91	=91	=91	=91	=91	=91	=91
2r	.	2r	.	8r	.	8dd\L	.
.	.	.	.	8d/L	p	8ff#\	.
.	.	.	.	8e/	.	8gg\	.
.	.	.	.	8f#/J	.	8aa\J	.
=92	=92	=92	=92	=92	=92	=92	=92
2r	.	2r	.	4g/	.	(8aa#\L	.
.	.	.	.	.	.	8bb\)	.
.	.	.	.	4e/	.	8gg'\	.
.	.	.	.	.	.	8ee'\J	.
=93	=93	=93	=93	=93	=93	=93	=93
2r	.	2r	.	4.a/	.	(8dd\L	.
.	.	.	.	.	.	8cc#\)	.
.	.	.	.	.	.	8b'\	.
.	.	.	.	8g/	.	8a'\J	.
=94	=94	=94	=94	=94	=94	=94	=94
2r	.	2r	.	(8g/L	.	4dd\	.
.	.	.	.	8f#/)	.	.	.
.	.	.	.	8e'/	.	8r	.
.	.	.	.	8d'/J	.	8a/	.
=95	=95	=95	=95	=95	=95	=95	=95
2r	.	2A/	p	2c#/	.	(8aa\L	.
.	.	.	.	.	.	8gg\)	.
.	.	.	.	.	.	8ff#'\	.
.	.	.	.	.	.	8gg'\J	.
=96	=96	=96	=96	=96	=96	=96	=96
4r	.	4B/	.	4d/	.	4ff#\	.
8r	.	8r	.	8r	.	8r	.
8B\	f	8b\	f	8dd\	f	8ff#\	f
=97	=97	=97	=97	=97	=97	=97	=97
4G\	.	4g\	.	4b\	.	4ee\	.
4A\	.	4e\	.	4g/	.	4cc#/ 4e/ 4A/	.
=98	=98	=98	=98	=98	=98	=98	=98
4D\	.	4d\	.	4f#/	.	4dd/ 4f#/ 4A/	.
8r	.	8r	.	8r	.	8r	.
8AA/	.	8A/	.	8A/	.	8A/	.
=99	=99	=99	=99	=99	=99	=99	=99
8D\L	.	8d\L	.	8d/L	.	8d/L	.
8F#\	.	8f#\	.	8f#/	.	8f#/	.
8G\	.	8g\	.	8g/	.	8g/	.
8A\J	.	8a\J	.	8a/J	.	8a/J	.
=100	=100	=100	=100	=100	=100	=100	=100
(8A#\L	.	(8a#\L	.	(8a#/L	.	(8a#/L	.
8B\)	.	8b\)	.	8b/)	.	8b/)	.
8G'\	.	8g'\	.	8g'/	.	8g'/	.
8E'\J	.	8e'\J	.	8e'/J	.	8e'/J	.
=101	=101	=101	=101	=101	=101	=101	=101
(8D/L	.	(8d/L	.	(8d/L	.	(8d/L	.
8C#/)	.	8c#/)	.	8c#/)	.	8c#/)	.
8BB'/	.	8B'/	.	8B'/	.	8B'/	.
8AA'/J	.	8A'/J	.	8A'/J	.	8A'/J	.
=102	=102	=102	=102	=102	=102	=102	=102
4D\	.	4d\	.	4d/	.	4d/	.
4r	.	4r	.	4r	.	4r	.
==|!	==|!	==|!	==|!	==|!	==|!	==|!	==|!
*-	*-	*-	*-	*-	*-	*-	*-
!!!RWG: Key is interpreted using the Humdrum key tool.
!!!AFT: stage2
!!!END: 1994/02/11
!!!KEY: 3556576368
!!!EMD: Converted from MuseData to Humdrum Dec 16, 2000, by Andreas Kornstaedt using muse2kern.
!!!EMD: Manual editing by Craig Sapp, Nov 2001
